X: 42033
T: Waltz Blanchard
R: waltz
M: 3/4
K: Gmajor
{A}B2 {c}BA GF|E3 F GB|AB AG FE|D3 E {GF}D2|G2G2G2|A2A2A2|B2{c}BA GB|A4 GA|
B2 BA GF|E3 F GB|AB AG FE|D3 E F2|G2G2G2|A2AG FA|G6|G6:|
GF|E2F2G2|A2B2c2|d3ed2|B3AG2|A3Bc2|c2B2c|A6|A4GF|
E3FG2|A3B c2|d3ed2|1 B3AG2|A3Bc2|c2A2F2|G6|G4 GF:|2 g2d2B2|c2A2F2|D3EF2|G6|G6||

